X: 35917
T: Sandy's New Chanter
R: hornpipe
M: 4/4
K: Dmajor
|:f2ef fAdf|g2fg BggB|fAdf faga|eAce eage|
f2ef fAdf|g2fg BggB|fAdf eAce|1 d4 d2ag:|2 d4 d2A2||
|:a2fa dffA|g2fg BggB|fAdf faga|eAce eage|
[1 a2fa dffA|g2fg BggB|fAdf eAce|d4 d2A2:|
[2 f2ef fAdf|g2fg BBg2|fAdf eAce|d4 d2Ad||
|:fA A2 AffA|gB B2 Bgag|fA A2 daga|eAce eage|
fA A2 AffA|gB B2 Bgag|fAdf eAce|1 d4 d2 Ad:|2 d4 d2 A2||
|:a2 a2 fgaf|gBBg Bdge|fA A2 daga|eAce eage|
[1 a2a2 fgaf|gBBg Bdge|fAdf eAce|d4 d2A2:|
[2 f2ef fAdf|g2fg BggB|fAdf eAce|d4 d2z2||
|:fAAf AAfA|gBBg BBgB|fAAf AAfA|eAfA gAag|
fAAf AAfA|gBBg BBgB|fAdf eAce|d4 d4:|

